X:163
%%etbk:tnset id:54,pos:5,rep:3x,ant:
%%etbk:tnset id:64,pos:3,rep:2x,ant:
%%etbk:tnset id:320,pos:2,rep:3x,ant:
%%etbk:wsite http://www.thesession.org/tunes/display/42
%%etbk:pldat 2016-06-23T19:08,2016-06-22T16:14,2016-06-21T16:14,2016-06-20T18:47,2016-05-05T15:37,2016-05-03T15:23,2016-03-11T16:56,2016-03-09T17:17,2016-03-08T15:50,2016-03-05T15:06,2016-02-26T17:34,2016-02-23T16:46,2016-02-22T18:48,2016-02-07T15:03,2015-11-03T16:20,2015-10-28T16:15,2015-10-26T18:22,2015-10-22T19:17,2015-10-15T19:28,2015-10-06T17:08,2015-10-03T16:20,2015-09-08T19:24,2015-06-23T18:16,2015-06-16T16:59,2015-05-27T18:56,2015-04-22T15:46,2015-03-12T18:43,2015-03-09T18:22,2015-03-03T18:18,2015-02-22T16:22,2015-02-17T17:40,2015-02-14T13:12,2015-02-11T16:19,2015-02-10T17:49,2015-01-28T17:07,2014-11-05T19:00,2014-11-04T17:06,2014-11-02T15:18,2014-10-29T16:11,2014-10-24T18:20,2014-10-12T14:09,2014-09-04T18:26,2014-09-03T18:34,2014-09-02T18:29,2014-09-01T18:30,2014-08-31T13:47,2014-08-27T18:38,2014-08-26T16:28,2014-08-21T19:11,2014-08-18T18:39,2014-08-03T14:53,2014-07-13T15:15,2014-06-23T18:45,2014-05-28T16:50,2014-03-05T19:34,2014-03-02T15:57,2014-02-25T19:11,2014-02-12T18:08,2013-10-30T15:39,2013-10-28T18:21,2013-10-24T18:52,2013-10-18T16:05,2013-10-14T18:46,2013-10-09T16:20,2013-08-29T16:39
T: Gravel Walks, The
Z: Piano Box Version by Martin Fleischmann
H: Created 2013-02-19 /  Last Modified 2013-02-19
M: 4/4
L: 1/8
R: reel
K: Ador
|: "am"!1!A2!5!e!1!A !3!(3A!2!A!1!A !5!eA | !1!A2eA "em"!3!BA!1!G!3!B | "am"!1!A2eA !2!B!1!de!3!f | "G"!5!ged!1!c !3!BAGB:|
"am"!1!A2!5!aA !4!gA!3!fA | !3!(3A!2!A!1!A !5!eA "em"!3!BA!1!G!3!B | "am"!1!A2!5!aA !4!gA!3!fA | "G"!5!ged!1!c !3!BA!1!G!3!B |
"am"!1!A2!5!aA !4!gA!3!fA | !3!(3A!2!A!1!A !5!eA "em"!3!BA!1!G!3!B | "am"!1!AB!3!c!1!d efg!5!a | "G"!4!g!3!ed!1!c !3!BA!1!G!3!B |
|: "am"!4!c!1!AA!2!G !1!A2A!2!B | !3!c!1!A !3!(3A!2!A!1!A "G"!4!d!2!B!1!GB | "am"!3!c!1!AA!2!G !1!A2!3!ef | "am"!5!ged!1!c !3!BA!1!G!3!B:|
K:Cmaj
|: "C"!1!c2!4!gc !5!ac!4!gc | !3!(3c!2!c!1!c !5!g!1!c "G"!3!BA!1!G!3!B | "C"!1!c2!4!gc !5!ac!4!gc | "G"!5!ged!1!c !3!BA!1!G!3!B |
"C"!1!c2!4!gc !5!ac!4!gc | !3!(3c!2!c!1!c !5!g!1!c "G"!3!BA!1!G!3!B | "am"!1!AB!3!c!1!d efg!5!a | "G"!4!g!3!ed!1!c !3!BA!1!G!3!B :|


